app/dist/common/images/aeon-mall-co-ltd.svg

<svg height="18" viewBox="0 0 18 18" width="18" xmlns="http://www.w3.org/2000/svg"><path d="m0 0h18v18h-18z" fill="#f0f3fa"/><g fill="#b60081"><path d="m4.94 4a.94.94 0 0 0 -.94.94v8.12c0 .52.42.94.94.94h8.12c.52 0 .94-.42.94-.94v-8.12a.94.94 0 0 0 -.94-.94zm.15.5a.6.6 0 0 0 -.6.59v7.82c0 .33.27.6.6.6h7.82a.6.6 0 0 0 .6-.6v-7.81a.6.6 0 0 0 -.6-.6h-7.81z" fill-rule="evenodd"/><path d="m7.26 7h.74l-2.22 4h-.78zm.74 3.43v-3.43h3v.57h-2.25v2.86h2.25v.57h-3z"/><path d="m10.33 8.2h-.33c-1.4 0-2.53.28-2.53.63 0 .36 1.14.64 2.53.64 1.4 0 2.53-.28 2.53-.64 0-.2-.37-.38-.95-.5l.04-.17c.83.18 1.38.49 1.38.84 0 .55-1.34 1-3 1s-3-.45-3-1 1.34-1 3-1h.33z"/></g></svg>

<!-- by TradingView --><svg width="18" height="18" viewBox="0 0 18 18" xmlns="http://www.w3.org/2000/svg"><path fill="#F0F3FA" d="M0 0h18v18H0z"/><path fill-rule="evenodd" d="M4.94 4a.94.94 0 0 0-.94.94v8.12c0 .52.42.94.94.94h8.12c.52 0 .94-.42.94-.94V4.94a.94.94 0 0 0-.94-.94H4.94Zm.15.5a.6.6 0 0 0-.6.59v7.82c0 .33.27.6.6.6h7.82a.6.6 0 0 0 .6-.6V5.1a.6.6 0 0 0-.6-.6H5.1Z" fill="#B60081"/><path d="M7.26 7H8l-2.22 4H5l2.26-4ZM8 10.43V7h3v.57H8.75v2.86H11V11H8v-.57Z" fill="#B60081"/><path d="M10.33 8.2H10c-1.4 0-2.53.28-2.53.63 0 .36 1.14.64 2.53.64 1.4 0 2.53-.28 2.53-.64 0-.2-.37-.38-.95-.5l.04-.17c.83.18 1.38.49 1.38.84 0 .55-1.34 1-3 1s-3-.45-3-1 1.34-1 3-1h.33v.2Z" fill="#B60081"/></svg>
